X:1
T:Zum Frieden, 87.87 D
T:Zum Frieden, 87.87 D
T:Johann Sebastian Bach (1685-1750)
T:Public Domain Courtesy of the Cyber Hymnal™
C:Johann Sebastian Bach (1685-1750)
Z:Public Domain
Z:Courtesy of the Cyber Hymnal™
%%score ( 1 2 ) ( 3 4 )
L:1/8
Q:1/4=106
M:none
K:F
V:1 treble 
V:2 treble 
V:3 bass 
V:4 bass 
V:1
|: [FA]2 [DF]2 D2 [Fd]2 | B2 A2 B2 [CA]2 | [EG]2 F2 B2 A2 | G2 [DF]2 [=CE]4 :| %4
 [^CE]2 [=B,E]2 [CE]2 [EA]2 | [DF]2 [^CE]2 [DF]2 [DF]2 | [DF]2 E2 [DF]2 [Fd]2 | ^G3 (z A) [^CA]4 | %8
 [EA]2 (GF) B2 A2 | ([Ad][G^c]) ([Fd][Ee]) [Ec]2 [^CA]2 | A2 (dc) (BA) (GF) | [DE]2 (^CD) D4 |] %12
V:2
|: x4 D2 x2 | (FE) (ED) (DC) x2 | x2 F2 (FE) (ED) | (D^C) x6 :| x8 | x8 | x2 E2 x4 | E2 D2 x5 | %8
 x2 D2 (FE) A2 | x8 | (DE) F2 D2 D2 | x4 D4 |] %12
V:3
|: D2 (z E,) [F,A,]2 [D,A,]2 | G,2 [F,A,]2 [E,G,]2 F,2 | [^C,A,]2 [D,A,]2 G,2 [F,A,]2 | %3
 E,2 (F,G,) [A,,A,]4 :| A,2 [^G,=B,]2 A,2 [^C,A,]2 | [D,A,]2 [A,,A,]2 [D,A,]2 [D,A,]2 | %6
 [D,A,]2 [^C,A,]2 [D,A,]2 [=B,,A,]2 | [E,=B,]2 [E,B,]2 [A,,A,]4 x | %8
 [^C,A,]2 [D,A,]2 [G,B,]2 [F,D]2 | B,2 [G,B,]2 A,2 A,2 | A,2 [D,A,]2 G,2 [D,A,]2 | %11
 A,2 [A,,G,]2 [D,F,]4 |] %12
V:4
|: D,3 D2 x3 | G,2 x2 F,2 x2 | x4 G,2 x2 | E,2 D,2 x4 :| A,2 A,2 x4 | x8 | x8 | x9 | x8 | %9
 B,2 A,2 (A,G,) x2 | (F,E,) x G,2 x3 | A,2 x6 |] %12

